svgs/dkb.svg

<svg width="192" height="192" viewBox="0 0 192 192" fill="none" xmlns="http://www.w3.org/2000/svg"><path d="M92.013 66.034c-5.782.084-11.565.166-17.348.252-.075 19.902-.15 39.805-.227 59.707h19.754c.053-5.967.108-11.932.163-17.898 3.373 5.894 6.753 11.785 10.125 17.678 6.294.035 15.762.266 22.055.089 1.951-.988-1.455-.089.057.009 8.688-.044 17.62.231 26.306-.015 2.544-.055 5.102-.399 7.463-1.398 4.652-1.754 8.583-5.473 10.317-10.192 1.912-4.866 1.805-10.572-.683-15.214a16.305 16.305 0 0 0-5.033-5.768c2.716-2.394 3.699-6.132 3.773-9.646.089-2.77.033-5.698-1.415-8.154-3.038-5.704-9.458-9.089-15.792-9.183-8.623-.389-17.257-.202-25.886-.25v57.328c-2.642-4.858-5.549-9.565-8.308-14.355-2.975-5.074-5.978-10.132-8.904-15.235 4.926-7.871 10.017-15.648 14.836-23.592 1.822-2.201 4.992-4.2 2.718-4.149-6.218-.113-16.824.045-22.867 0-2.925 5.042-5.847 10.086-8.772 15.127-.05-5.058-.104-10.116-.157-15.175l-2.175.034Zm-58.278.112c-4.504.043-9.006.085-13.509.13L20 125.993c7.889-.038 15.781.087 23.669-.095 3.536-.078 7.136-.527 10.351-2.105 3.217-1.448 6.421-3.097 8.922-5.651 3.293-3.096 6.163-6.751 7.761-11.031 1.865-4.569 2.171-9.625 1.877-14.507-.628-9.395-6.408-18.16-14.614-22.628-3.342-1.865-7.004-3.233-10.84-3.533-4.449-.425-8.928-.302-13.391-.297Zm116.033 17.787c.923 1.289.659 3.278-.728 4.133-1.138.44-1.291.306-3.627.248v-5.233c1.536.089 3.461.035 4.355.852Zm-109.86.522c3.475.344 7.164.969 9.893 3.338 1.856 1.584 3.082 3.933 3.064 6.407.055 2.279.132 4.646-.583 6.838-1.313 3.455-4.883 5.355-8.302 6.095a27.208 27.208 0 0 1-4.194.587V84.441l.122.014Zm110.775 18.356c1.152.943 1.109 2.697.707 4.003-1.32 2.132-3.954 1.74-5.977 1.74v-6.675c1.821.084 4.22-.085 5.27.932Z" stroke="#000" stroke-width="8" stroke-linejoin="round"/></svg>

<svg width="192" height="192" viewBox="0 0 192 192" fill="none" xmlns="http://www.w3.org/2000/svg">
<path d="M92.013 66.034C86.231 66.118 80.448 66.2 74.665 66.286C74.59 86.188 74.515 106.091 74.438 125.993H94.192C94.245 120.026 94.3 114.061 94.355 108.095C97.728 113.989 101.108 119.88 104.48 125.773C110.774 125.808 120.242 126.039 126.535 125.862C128.486 124.874 125.08 125.773 126.592 125.871C135.28 125.827 144.212 126.102 152.898 125.856C155.442 125.801 158 125.457 160.361 124.458C165.013 122.704 168.944 118.985 170.678 114.266C172.59 109.4 172.483 103.694 169.995 99.052C168.797 96.755 167.071 94.777 164.962 93.284C167.678 90.89 168.661 87.152 168.735 83.638C168.824 80.868 168.768 77.94 167.32 75.484C164.282 69.78 157.862 66.395 151.528 66.301C142.905 65.912 134.271 66.099 125.642 66.051V123.379C123 118.521 120.093 113.814 117.334 109.024C114.359 103.95 111.356 98.892 108.43 93.789C113.356 85.918 118.447 78.141 123.266 70.197C125.088 67.996 128.258 65.997 125.984 66.048C119.766 65.935 109.16 66.093 103.117 66.048C100.192 71.09 97.27 76.134 94.345 81.175C94.295 76.117 94.241 71.059 94.188 66L92.013 66.034ZM33.735 66.146C29.231 66.189 24.729 66.231 20.226 66.276C20.151 86.182 20.076 106.088 20 125.993C27.889 125.955 35.781 126.08 43.669 125.898C47.205 125.82 50.805 125.371 54.02 123.793C57.237 122.345 60.441 120.696 62.942 118.142C66.235 115.046 69.105 111.391 70.703 107.111C72.568 102.542 72.874 97.486 72.58 92.604C71.952 83.209 66.172 74.444 57.966 69.976C54.624 68.111 50.962 66.743 47.126 66.443C42.677 66.018 38.198 66.141 33.735 66.146ZM149.768 83.933C150.691 85.222 150.427 87.211 149.04 88.066C147.902 88.506 147.749 88.372 145.413 88.314V83.081C146.949 83.17 148.874 83.116 149.768 83.933ZM39.908 84.455C43.383 84.799 47.072 85.424 49.801 87.793C51.657 89.377 52.883 91.726 52.865 94.2C52.92 96.479 52.997 98.846 52.282 101.038C50.969 104.493 47.399 106.393 43.98 107.133C42.599 107.437 41.197 107.634 39.786 107.72V84.441L39.908 84.455ZM150.683 102.811C151.835 103.754 151.792 105.508 151.39 106.814C150.07 108.946 147.436 108.554 145.413 108.554V101.879C147.234 101.963 149.633 101.794 150.683 102.811Z" stroke="black" stroke-width="8" stroke-linejoin="round"/>
</svg>
